public/yootheme.svg

<svg width="57" height="57" viewBox="0 0 57 57" xmlns="http://www.w3.org/2000/svg" xmlns:xlink="http://www.w3.org/1999/xlink">
    <path id="Rounded-Rectangle" fill="#ffffff" fill-rule="evenodd" stroke="none" d="M 3.25 12 C 1.45509 12 0 13.45509 0 15.25 L 0 43.75 C 0 45.54491 1.45509 47 3.25 47 L 18.75 47 C 20.54491 47 22 45.54491 22 43.75 L 22 15.25 C 22 13.45509 20.54491 12 18.75 12 Z"/>
    <path id="path1" fill="#ffffff" fill-rule="evenodd" stroke="none" d="M 5.25 12 C 2.35053 12 0 14.350533 0 17.25 L 0 32.75 C 0 35.649467 2.35053 38 5.25 38 L 51.75 38 C 54.649471 38 57 35.649467 57 32.75 L 57 17.25 C 57 14.350533 54.649471 12 51.75 12 Z"/>
    <path id="Path" fill="#222222" stroke="none" d="M 44.75 15.290001 C 41.200001 15.290001 38.419998 16.869999 36.709999 19.290001 C 35 16.869999 32.220001 15.290001 28.67 15.290001 C 24.129999 15.290001 20.84 17.889999 19.450001 21.529999 L 19.450001 15.77 L 14.26 15.77 L 14.26 27.280001 C 14.26 29.469999 13.45 30.76 11.22 30.76 C 9 30.76 8.190001 29.469999 8.190001 27.280001 L 8.190001 15.77 L 3 15.77 L 3 28.33 C 3 30.16 3.45 31.780001 4.38 33.029999 C 5.27 34.290001 6.65 35.219002 8.51 35.619999 L 8.51 43.808998 L 13.94 43.808998 L 13.94 35.619999 C 17.25 34.900002 19.02 32.59 19.379999 29.530001 C 20.73 33.268997 24.059999 35.950001 28.67 35.950001 C 32.220001 35.950001 35 34.370003 36.709999 31.950001 C 38.419998 34.370003 41.200001 35.950001 44.75 35.950001 C 50.869999 35.950001 54.709999 31.25 54.709999 25.620001 C 54.709999 19.989998 50.869999 15.290001 44.75 15.290001 Z M 28.67 30.76 C 25.799999 30.76 23.889999 28.9 23.889999 25.620001 C 23.889999 22.34 25.799999 20.470001 28.67 20.470001 C 31.549999 20.470001 33.450001 22.34 33.450001 25.620001 C 33.450001 28.9 31.549999 30.76 28.67 30.76 Z M 44.75 30.76 C 41.869999 30.76 39.970001 28.9 39.970001 25.620001 C 39.970001 22.34 41.869999 20.470001 44.75 20.470001 C 47.619999 20.470001 49.529999 22.34 49.529999 25.620001 C 49.529999 28.9 47.619999 30.76 44.75 30.76 Z"/>
</svg>

<svg width="57" height="57" viewBox="0 0 57 57" xmlns="http://www.w3.org/2000/svg"><path fill="#fff" fill-rule="evenodd" d="M3.25 12A3.25 3.25 0 0 0 0 15.25v28.5A3.25 3.25 0 0 0 3.25 47h15.5A3.25 3.25 0 0 0 22 43.75v-28.5A3.25 3.25 0 0 0 18.75 12Z"/><path fill="#fff" fill-rule="evenodd" d="M5.25 12A5.25 5.25 0 0 0 0 17.25v15.5C0 35.65 2.35 38 5.25 38h46.5c2.9 0 5.25-2.35 5.25-5.25v-15.5c0-2.9-2.35-5.25-5.25-5.25Z"/><path fill="#222" d="M44.75 15.29c-3.55 0-6.33 1.58-8.04 4-1.71-2.42-4.49-4-8.04-4-4.54 0-7.83 2.6-9.22 6.24v-5.76h-5.19v11.51c0 2.19-.81 3.48-3.04 3.48-2.22 0-3.03-1.29-3.03-3.48V15.77H3v12.56c0 1.83.45 3.45 1.38 4.7.89 1.26 2.27 2.189 4.13 2.59v8.189h5.43V35.62c3.31-.72 5.08-3.03 5.44-6.09 1.35 3.739 4.68 6.42 9.29 6.42 3.55 0 6.33-1.58 8.04-4 1.71 2.42 4.49 4 8.04 4 6.12 0 9.96-4.7 9.96-10.33s-3.84-10.33-9.96-10.33ZM28.67 30.76c-2.87 0-4.78-1.86-4.78-5.14 0-3.28 1.91-5.15 4.78-5.15 2.88 0 4.78 1.87 4.78 5.15 0 3.28-1.9 5.14-4.78 5.14Zm16.08 0c-2.88 0-4.78-1.86-4.78-5.14 0-3.28 1.9-5.15 4.78-5.15 2.87 0 4.78 1.87 4.78 5.15 0 3.28-1.91 5.14-4.78 5.14Z"/></svg>
